X: 42919
T: Will's
R: reel
M: 4/4
K: Amajor
C|:FEFG A2GF|GBec BGEG|1 ABcd c2BA|GF^EG AF[FC]:|2 Acaf ecBA|GF^EG AF[FC]E||
Aceg aecA|BAGF ^EGcB|Aceg aecA|Bdc^e fFFG|
.A.c.e.g aecA|BAGF ^EGCc|Aceg aecA|ecdB cAA||

